StripePaymentSheet/StripePaymentSheet/Resources/StripePaymentSheet.xcassets/Link/link_logo_knockout.imageset/link_logo_knockout_dark.svg

<svg fill="none" height="25" viewBox="0 0 72 25" width="72" xmlns="http://www.w3.org/2000/svg"><g fill="#000" fill-opacity=".3"><path d="m36.3783 4.17072c0-1.128.9504-2.0448 2.0688-2.0448s2.0688.9216 2.0688 2.0448-.9168 2.0688-2.0688 2.0688-2.0688-.9168-2.0688-2.0688z"/><path d="m30.2391 2.4139h3.6v20.16h-3.6z"/><path d="m40.2663 8.17391h-3.6288v14.39999h3.6288z"/><path d="m66.3543 14.8843c2.7312-1.68 4.5888-4.1808 5.3232-6.71517h-3.6288c-.9456 2.41917-3.1152 4.23837-5.5008 5.01117v-10.77117h-3.6288v20.15997h3.6288v-5.9952c2.7696.6912 4.9584 3.0864 5.7072 5.9952h3.6528c-.5568-3.0528-2.6448-5.9088-5.5536-7.6848z"/><path d="m46.6983 9.78673c.9504-1.2624 2.8032-1.99682 4.3056-1.99682 2.8032 0 5.1216 2.04962 5.1264 5.14559v9.6336h-3.6288v-8.832c0-1.272-.5664-2.7408-2.4048-2.7408-2.16 0-3.4032 1.9152-3.4032 4.1568v7.4256h-3.6288v-14.39518h3.6336z"/><path clip-rule="evenodd" d="m24.2583 12.4939c0 6.6275-5.3726 12.0001-12.0001 12.0001-6.62737 0-11.99996-5.3726-11.99996-12.0001 0-6.62737 5.37259-11.999942 11.99996-11.999942 6.6275 0 12.0001 5.372572 12.0001 11.999942zm-16.25299-7.19989h3.70079c.912 2.784 3.4512 5.20319 6.576 5.69279v3.0096c-3.12.4944-5.6592 2.9136-6.576 5.6976h-3.70079c.72-3.0096 2.81759-5.5824 5.45279-7.2-2.6304-1.6176-4.73279-4.19039-5.45279-7.19999z" fill-rule="evenodd"/></g></svg>

<svg width="72" height="25" viewBox="0 0 72 25" fill="none" xmlns="http://www.w3.org/2000/svg">
<path d="M36.3783 4.17072C36.3783 3.04272 37.3287 2.12592 38.4471 2.12592C39.5655 2.12592 40.5159 3.04752 40.5159 4.17072C40.5159 5.29392 39.5991 6.23952 38.4471 6.23952C37.2951 6.23952 36.3783 5.32272 36.3783 4.17072Z" fill="black" fill-opacity="0.3"/>
<path d="M30.2391 2.4139H33.8391V22.5739H30.2391V2.4139Z" fill="black" fill-opacity="0.3"/>
<path d="M40.2663 8.17391H36.6375V22.5739H40.2663V8.17391Z" fill="black" fill-opacity="0.3"/>
<path d="M66.3543 14.8843C69.0855 13.2043 70.9431 10.7035 71.6775 8.16913H68.0487C67.1031 10.5883 64.9335 12.4075 62.5479 13.1803V2.40913H58.9191V22.5691H62.5479V16.5739C65.3175 17.2651 67.5063 19.6603 68.2551 22.5691H71.9079C71.3511 19.5163 69.2631 16.6603 66.3543 14.8843Z" fill="black" fill-opacity="0.3"/>
<path d="M46.6983 9.78673C47.6487 8.52433 49.5015 7.78991 51.0039 7.78991C53.8071 7.78991 56.1255 9.83953 56.1303 12.9355V22.5691H52.5015V13.7371C52.5015 12.4651 51.9351 10.9963 50.0967 10.9963C47.9367 10.9963 46.6935 12.9115 46.6935 15.1531V22.5787H43.0647V8.18352H46.6983V9.78673Z" fill="black" fill-opacity="0.3"/>
<path fill-rule="evenodd" clip-rule="evenodd" d="M24.2583 12.4939C24.2583 19.1214 18.8857 24.494 12.2582 24.494C5.63083 24.494 0.25824 19.1214 0.25824 12.4939C0.25824 5.86653 5.63083 0.493958 12.2582 0.493958C18.8857 0.493958 24.2583 5.86653 24.2583 12.4939ZM8.00531 5.29401H11.7061C12.6181 8.07801 15.1573 10.4972 18.2821 10.9868V13.9964C15.1621 14.4908 12.6229 16.91 11.7061 19.694H8.00531C8.72531 16.6844 10.8229 14.1116 13.4581 12.494C10.8277 10.8764 8.72531 8.30361 8.00531 5.29401Z" fill="black" fill-opacity="0.3"/>
</svg>
